X: 1735
T: Senle Durmak Derd-nâk Eyler...
C: Kânûnî Hacı Ârif Bey
O: Turkey
F: http://compmusic.upf.edu/node/140
N: mahur--sarki--duyek--senle_durmak--kanuni_haci_arif_bey
N: makam= mahur
N: form= sarki
N: usul= duyek = 8/4
M: 8/4
L: 1/16
K: C ^9/8f   
Q: 1/4=120
%%MIDI tuningsystem comma53
d2 g2 fg a2 ab c'b ag fe  | d2 g2 fg ab ag =fe dc BA  | 
w:  ARANAĞME  |   | 
G2 g2 fg a2 ab c'b ag fe  | d2 g2 fg ab ag fa g4  | 
w:   |   | 
gf g2 c2 e2 d^c d^d ef g2  | c2 e2 d^c d2 AB =c^c dc d2  | 
w:   |   | 
GF GA Bc de =fe dc B2 d2  | (3BAB c2 (3AGA B2 AG FA G4  | 
w:   |   | 
d2 g2 fg a2 ab c'b ag fe  | d2 g2 fg ab ag =fe dc BA  | 
w:  ARANAĞME  |   | 
G2 g2 fg a2 ab c'b ag fe  | d2 g2 fg ab ag fa g4  | 
w:   |   | 
gf g2 c2 e2 d^c d^d ef g2  | c2 e2 d^c d2 AB =c^c dc d2  | 
w:   |   | 
GF GA Bc de =fe dc B2 d2  | (3BAB c2 (3AGA B2 AG FA G4  | 
w:   |   | 
z2 gf e2 f2 g2 ag g4  | z2 a4 {b}ag g3^3/4f ^1/4fe d2  | \
w:  Sen *  *  le  dur *  *  mak   |  derd  *  *  *  nâk  *  ey  | 
d2 c'4 c'b _1/4b3a d'^c' _ba  | 
w:  *  ler   | 
g2 _1/4b/a/b/c'/ ba ag g3d ef g2  | \
w:  *  *  *  *  *  *  *  be *  ni   SAZ  | 
z2 gf e2 f2 g2 ag g4  | 
w:  Sen *  *  le  dur *  *  mak   | 
z2 a4 {b}ag g3^3/4f ^1/4fe d2  | d2 c'4 c'b _1/4b3a d'^c' _ba  | \
w:  derd  *  *  *  nâk  *  ey  |  *  ler   | 
g2 _1/4b/a/b/c'/ ba ag g3d ef g2  | 
w:  *  *  *  *  *  *  *  be *  ni   SAZ  | 
z2 g4 =fe ed dc e/^9/8f/e/d/ e2  | \
w:  Sen den_ *  ay *  *  *  rıl  | 
e2 de .=f2 ed dc cB B/c/B/A/ B2  | 
w:  *  mak  *  *  he *  lâk  *  *  *  ey  | 
B2 A4 AG G3d d^c _BA  | G2 B/A/B/c/ BA AG GA Bc de =fg  | 
w:  *  ler   |  *  *  *  *  *  *  *  be *  ni   SAZ  | 
z2 g4 =fe ed dc e/^9/8f/e/d/ e2  | \
w:  Sen den_ *  ay *  *  *  rıl  | 
e2 de .=f2 ed dc cB B/c/B/A/ B2  | 
w:  *  mak  *  *  he *  lâk  *  *  *  ey  | 
B2 A4 AG G3d d^c _BA  | G2 _1/4B/A/B/c/ BA AG G3c Bd c2  | 
w:  *  ler   |  *  *  *  *  *  *  *  be *  ni   SAZ  | 
z2 c4 d2 _3/4ed c_1/4B c4  | z2 gf (3aag ^3/4f_3/4e ed ce d4  | 
w:  Ah  o  a *  *  *  teş   |  sî *  *  *  *  ne  *  çâk  *  *  *  ey  | 
z2 c'4 c'b _1/4b3a d'^c' _ba  | g2 _1/4b/a/b/c'/ ba ag g3d ef g2  | 
w:  ler   |  *  *  *  *  *  *  *  be *  ni   SAZ  | 
z2 g4 =fe ed dc e/^9/8f/e/d/ e2  | \
w:  Sen den_ *  ay *  *  *  rıl  | 
e2 de .=f2 ed dc cB B/c/B/A/ B2  | 
w:  *  mak  *  *  he *  lâk  *  *  *  ey  | 
B2 A4 AG G3d d^c _BA  | G2 B/A/B/c/ BA AG GA Bc de =fg  | 
w:  *  ler   |  *  *  *  *  *  *  *  be *  ni   SAZ  | 
z2 g4 =fe ed dc e/^9/8f/e/d/ e2  | \
w:  Sen den_ *  ay *  *  *  rıl  | 
e2 de .=f2 ed dc cB B/c/B/A/ B2  | 
w:  *  mak  *  *  he *  lâk  *  *  *  ey  | 
B2 A4 AG G3d d^c _BA  | G2 _1/4B/A/B/c/ BA AG G4 z4  | 
w:  *  ler   |  KARAR *  *  *  *  *  *  be *  ni    | 
|


